bootstrap/volume-down.svg

<svg xmlns="http://www.w3.org/2000/svg" width="16" height="16" fill="currentColor" class="bi bi-volume-down" viewBox="0 0 16 16">
  <path d="M9 4a.5.5 0 0 0-.812-.39L5.825 5.5H3.5A.5.5 0 0 0 3 6v4a.5.5 0 0 0 .5.5h2.325l2.363 1.89A.5.5 0 0 0 9 12zM6.312 6.39 8 5.04v5.92L6.312 9.61A.5.5 0 0 0 6 9.5H4v-3h2a.5.5 0 0 0 .312-.11M12.025 8a4.5 4.5 0 0 1-1.318 3.182L10 10.475A3.5 3.5 0 0 0 11.025 8 3.5 3.5 0 0 0 10 5.525l.707-.707A4.5 4.5 0 0 1 12.025 8"/>
</svg>

<svg viewBox="0 0 16 16" xmlns="http://www.w3.org/2000/svg"><path d="M9 4v0c-.01-.28-.23-.5-.51-.5 -.12 0-.23.03-.32.1L5.8 5.49H3.47v0c-.28 0-.5.22-.5.5v4 0c0 .27.22.5.5.5h2.32l2.36 1.89v0c.21.17.53.13.7-.08 .07-.09.1-.2.1-.32v-8ZM6.31 6.39l1.68-1.35v5.92L6.3 9.61v0c-.09-.08-.2-.11-.32-.11h-2v-3h2v0c.11-.01.22-.04.31-.11ZM12.02 8v0c0 1.19-.48 2.33-1.32 3.18l-.71-.71H9.98c.65-.66 1.02-1.55 1.02-2.48v0c0-.93-.37-1.82-1.03-2.48l.7-.71v0c.84.84 1.31 1.98 1.31 3.18Z"/></svg>
